client/playplace-next/public/assets/icons/ListPlus.svg

<svg xmlns="http://www.w3.org/2000/svg" width="24" height="24" viewBox="0 0 24 24" style="fill: rgba(0, 0, 0, 1);transform: ;msFilter:;"><path d="M19 15v-3h-2v3h-3v2h3v3h2v-3h3v-2h-.937zM4 7h11v2H4zm0 4h11v2H4zm0 4h8v2H4z">
</path>
</svg>

<svg viewBox="0 0 24 24" fillColor="current" xmlns="http://www.w3.org/2000/svg">
<path d="M19 15V12H17V15H14V17H17V20H19V17H22V15H21.063H19ZM4 7H15V9H4V7ZM4 11H15V13H4V11ZM4 15H12V17H4V15Z" fill="current"/>
</svg>
